X: 1
P: Laxo Burn
R: reel
C: Shetland, as played by Willie Hunter "Leaving Lerwick Harbour"
C: arr. T. Traub 6-27-2007
M: 4/4
K: D
|: A|"D"FD D/D/D FGA=c|"G"BG G/G/G GABd|"A"cA A/A/A cdeg|"D"fdcd BdAd|"D"FD D/D/D FGA=c|"G"BG G/G/G GABd|"A"cA A/A/A cdeg|"D"fddc d2 d :|
g |"D"f2 df Afdf|"G"g2 eg Bgeg|"E"^g2 eg Bgeg|"A"a2 ea caA=g|"D"f2 df Afdf|"G"g2 eg Bge^g|"A"aA A/A/A cde=g|"D"fddc d2 d|]
